optimized/24/outline/company.svg

<svg viewBox="0 0 24 24" fill="none" xmlns="http://www.w3.org/2000/svg">
  <g clip-path="url(#clip0_2627_42210)">
    <path fill-rule="evenodd" clip-rule="evenodd" d="M5 21.5732H19C20.1046 21.5732 21 20.6777 21 19.5732V12.8424C21 12.0677 20.5526 11.3626 19.8516 11.0327L14 8.27905V4.42857C14 3.04064 12.6209 2.07467 11.3165 2.54898L4.31651 5.09444C3.52614 5.38185 3 6.13301 3 6.97402V19.5732C3 20.6777 3.89543 21.5732 5 21.5732ZM11.8291 3.95867L4.82913 6.50413C4.63153 6.57598 4.5 6.76377 4.5 6.97402V19.5732C4.5 19.8493 4.72386 20.0732 5 20.0732H7.75V15.5732C7.75 15.159 8.08579 14.8232 8.5 14.8232C8.91421 14.8232 9.25 15.159 9.25 15.5732V20.0732H12.5V4.42857C12.5 4.08158 12.1552 3.84009 11.8291 3.95867ZM14 20.0732V9.93684L19.2129 12.39C19.3881 12.4724 19.5 12.6487 19.5 12.8424V19.5732C19.5 19.8493 19.2761 20.0732 19 20.0732H14Z" fill="#333333"/>
  </g>
  <defs>
    <clipPath id="clip0_2627_42210">
      <rect width="24" height="24" fill="white"/>
    </clipPath>
  </defs>
</svg>

<svg xmlns="http://www.w3.org/2000/svg" width="24" height="24" fill="none">
  <g clip-path="url(#a)">
    <path fill="#333" fill-rule="evenodd" d="M5 21.573h14a2 2 0 0 0 2-2v-6.73a2 2 0 0 0-1.148-1.81L14 8.279V4.43a2 2 0 0 0-2.684-1.88l-7 2.545A2 2 0 0 0 3 6.974v12.6a2 2 0 0 0 2 2ZM11.83 3.96l-7 2.545a.5.5 0 0 0-.33.47v12.6a.5.5 0 0 0 .5.5h2.75v-4.5a.75.75 0 0 1 1.5 0v4.5h3.25V4.428a.5.5 0 0 0-.67-.47ZM14 20.073V9.937l5.213 2.453a.5.5 0 0 1 .287.452v6.731a.5.5 0 0 1-.5.5h-5Z" clip-rule="evenodd"/>
  </g>
  <defs>
    <clipPath id="a">
      <path fill="#fff" d="M0 0h24v24H0z"/>
    </clipPath>
  </defs>
</svg>
